X:1
T:E minor Walter Janes, 1808
T:Isaac Watts, 1709 (Hymn 34, Book 2)                 86. 86. (C. M.)
T:St. Albans
T:Transcribed from The Meridian Harmony, 1808.
%%score [ 1 2 3 4 ]
L:1/8
Q:1/4=100
M:3/4
K:G
V:1 treble nm="Tr." snm="Tr."
V:2 treble nm="C." snm="C."
V:3 treble-8 nm="T." snm="T."
V:4 bass nm="B." snm="B."
V:1
 e>d | d4 c>B | (B2 A2) G2 | (A2 G2) F>G | G4 c>B | B4 e2 | d2 T^c4 | d6 |: d2 d>c c>B | B4 e>d | %10
w: 1.~Come, *|Ho- ly *|Spi- * rit,|heav'n- * ly *|Dove, With *|all thy|quick'- ning|powers;|Kin- dle * a *|flame of *|
 d4 c>B | (B2{cB} A2) G2 | (B3 A) (3GAB | (A2 G2) F2 | G6 :| %15
w: sa- cred *|love~ _ In|these~ _ cold * *|hearts * of|ours.|
V:2
 G2 | G4 G2 | (G2 F2) G2 | E4 D2 | D4 G2 | G4 B2 | A4 A2 | A6 |: G2 F2 F2 | G4 G2 | (B>A G2) G2 | %11
w: 2.~Look|how we|gro- * vel|here be-|low, Fond|of these|tri- fling|toys;|Our souls can|nei- ther|fly~ _ _ nor|
 (G2{AG} F2) G2 | D4 D2 | E4 D2 | D6 :| %15
w: go~ _ To|reach e-|ter- nal|joys.|
V:3
 c>B | B4 e>d | d4 g2 | (c2 B2) A>G | G4 e>d | d4 g2 | f2 Te4 | d6 |: B2 B>A A>G | G4 c>B | %10
w: 3.~In *|vain we *|tune our|for- * mal *|songs, In *|vain we|strive to|rise;|Ho- san- * nahs *|lan- guish *|
 B4 e>d | d4 g2 | (d3 c) (3Bcd | (c2 B2) A2 | G6 :| %15
w: on our *|tongues, And|our * de- * *|vo- * tion|dies.|
V:4
 G,2 | G,4 G,2 | D,4 E,2 | C,4 D,2 | G,4 G,2 | G,4 E,2 | A,4 [A,,A,]2 | D,6 |: G,2 D,2 D,2 | %9
w: 4.~Dear|Lord! and|shall we|ev- er|lie At|this poor|dy- ing|rate?|Our love so|
w: 5.~Come,|Ho- ly|Spi- rit,|heav'n- ly|Dove, With|all thy|quick'- ning|powers;|Come, shed a-|
 G,4 [C,G,]2 | G,4 G,2 | D,4 E,2 | G,4 [B,,G,]2 | C,4 D,2 | [G,,G,]6 :| %15
w: faint, so|cold to|thee, And|thine to|us so|great?|
w: broad a|Sa- vior's|love, And|that shall|kin- dle|ours.|

